**kern
*staff1
*head1[head1]
*head1[head2]
*bridge1[bridge1]
*solo1[solo1a]
*solo1[solo1b]
*solo1[soloaa]
=1-
*clefG2
*k[]
*B-:
*M4/4
1r
=2
1r
=3
1r
=4
1r
=5
1r
=6
1r
=7
1r
=8
1r
=9
*>head1
{4f/
8r
[8ff\
8ff\L]
8dd\J
4ee-\
=10
8r
8b-\
12g/L
12e-/
12c/J
8b-\L
8g\
8cc#\
8dd\J
=11
4f/
8r
[8dd\
8dd\L]
8b-\J
4cc\
=12
8r
8f/L
8f/
8f/J
8cc\
4f/
8g/
=13
8a-/
8a-/
8g/
8g-/J
4f/
8r
8cc\
=14
8r
8b-\
8r
8g/
8cc#\L
8dd\
8cc#\
8dd\J
=15
4f/
8r
8b-\
8dd\L
8ee-\
8dd\
[8a\J
=16
8a/L]
8b-/J
12g/L
12f/
12d/J
8f/L
8d/
8a-/
8f/J}
=17
4r
8r
{[8ff\
8ff\L]
8dd\J
4ee-\
=18||
8r
8b-\
12g/L
12e-/
12c/J
8b-/L
8g-/
8e-/
8c/J
=19
4f/
8r
[8dd\
8dd\L]
8b-\J
4cc\
=20
8r
8c/L
8e-/
8g/J
8cc\L
8b-\
8dd\
[8a-\J
=21
4a-/]
8e-/L
8c/J
8B/L
8g/J
8r
8d/
=22
8f/L
8d/J
24B-/LL
24c/
24B-/JJ
8G/
8G-/
4d-/
8B-/
=23
4c/
8r
8e-/
8r
8g/
4f/
=24
8r
8a/
8r
8cc\
8b-/L
8d/
8d#/
8e/J}
=25
*>bridge1
4r
8r
{8a/
8r
8g/
8r
8f#/
=26||
8e/L
8c/
8c#/
[8d/J
4d/]
8r
8e/
=27
8a/L
8f/
8g/
8a/J
8ee\L
8dd\
8b\
8a\J
=28
4r
8r
8g/
8r
8a/
8r
8g/
=29
4b-\
8r
8d/
8a/L
8g/J
4e/
=30
8d/L
8c/
8d/
[8a/J
4.a/]
8g/
=31
4f/
8r
8d/
8e-/L
8d/
8c#/
8d/J
=32
4e-/
8r
8a-/
8r
8g-/
8r
8en/
=33
4f/}
*>head2
8r
[8ff\
8ff\L]
8dd\J
4ee-\
=34
8r
8b-\
12g/L
12e-/
12c/J
8b-\L
8g\
8cc#\
8dd\J
=35
4f/
8r
[8dd\
8dd\L]
8b-\J
4cc\
=36
8r
8f/
4f/
8cc\
4f/
8g/
=37
8a-/L
8a-/
8g/
8g-/J
4f/
8r
8cc\
=38
8r
8b-\
8r
8g/
8cc#\L
8dd\
8cc#\
8dd\J
=39
4f/
8r
[8dd-\
24dd-\LL]
24ee-\
24dd-\JJ
8b-\
4cc\
=40
8r
[8b-\
24b-\LL]
24cc\
24b-\JJ
8g/
4b-\}
4r
=41
2r
*>solo1a
{8c/L
8B-/
8A/
8B-/J
=42||
8e-/L
8g-/
8e-/
8en/J
8f/L
8e-/J
12d/L
12f/
12a/J
=43
4b-\
4f/
2g/}
=44
2r
2r
=45
2r
{8cc\L
8b\
8b-\
8a-\J
=46
8g/L
8f/
8e-/
8c/J
8b-/L
8g-/
8e-/
8c/J
=47
8d/L
8B-/
8A/
8B-/J
8c/L
8B-/
8A/
[8B-/J
=48
2B-/]}
2r
=49
8r
{8e/
12f\L
12b-\
12dd\J
4ff\
8ee-\L
[8cc\J
=50||
2cc\]}
2r
=51
8r
{16dd\LL
16cc\J
8b-\
8a\J
8g/L
8g-/
8f/
8e/J
=52
8e-/L
8B-/
8G/
8B-/J
8d-/L
8dn/
8B-/
8G/J
=53
8c/L
8B/
8B-/
8A/J
4A-/
8b-/L
8a-/J
=54
8g/L
8f/
8e-/
8c/J
24b-\LL
24cc\
24b-\JJ
8g-/L
8e-/
8B-/J
=55
8d/L
[8f/J
2f/]}
4r
=56
1r
=57
8r
*>solo1b
{8A/
12c/L
12e/
12g/J
4b\
12g#/L
12e/
12c/J
=58||
8b/L
8g#/J
4r
8r
8d/
12f/L
12a/
12cc/J
=59
12ee\L
12ee-\
12dd\J
4dd-\}
2r
=60
2r
{24cc\LL
24dd\
24cc\JJ
8b\L
8b-\
8a-\J
=61
8g/L
8f/
8e/
8c/J
8d/L
8B-/
8G/
8A/J
=62
8c/L
8A/J
12B-/L
12d/
12e/J
8a/L
8g/
8e/
8c/J
=63
8f/L
8c/
8d/
8e-/J
24d/LL
24e-/
24d/JJ
8c/
4d/}
=64
2r
8r
*>solo1aa
{8ff\L
8ff\
8ff\J
=65
8ff\L
8ee-\J
4r
8r
4.ff\
=66||
4dd\
8ff\L
[8cc\J
4cc\]
8r
8a/
=67
8cc/L
8a/J
4r
8r
8b\
12g#/L
12e/
12c#/J
=68
12b-\L
12cc\
12b-\J
8a/L
8g/J
8f/L
8e-/
8d/
8c/J
=69
8B-/L
8A/
8A-/
8B-/J
8b-/L
8a-/
8g/
8f/J
=70
8e-/L
8B-/
8c/
[8d-/J
4d-/]
4r
=71
2r
8r
8B-/L
8d-/
8dn/J
=72
8A/L
8B-/
8c/
8B-/J
8A/L
8g-/
8e-/
8en/J
=73
8f/L
8d/J
4r
4d/}
4r
==
*-
